X: 32
M: 3/4
L: 1/4
K: F
|:\
fef | e/>f/gc | fe/d/c/B/ | A3 |\
fe/d/c/B/ | A2f | Bc2 | F3 :|\
|:\
fef | FED | ede | EDC |\
fed | ^cAd | GA2 | D3 :|

